images/val-2.svg

<?xml version="1.0" encoding="UTF-8"?>
<svg width="71px" height="79px" viewBox="0 0 71 79" version="1.1" xmlns="http://www.w3.org/2000/svg" xmlns:xlink="http://www.w3.org/1999/xlink">
    <!-- Generator: Sketch 48.2 (47327) - http://www.bohemiancoding.com/sketch -->
    <title>val-2</title>
    <desc>Created with Sketch.</desc>
    <defs>
        <polygon id="path-1" points="0 0 70.4 0 70.4 78.72 0 78.72"></polygon>
    </defs>
    <g id="White-Landing--Copy-7" stroke="none" stroke-width="1" fill="none" fill-rule="evenodd" transform="translate(-829.000000, -1177.000000)">
        <g id="Group-31" transform="translate(-88.000000, -410.000000)">
            <g id="Group-24" transform="translate(663.000000, 1587.000000)">
                <g id="Group-23">
                    <g id="val-2" transform="translate(254.000000, 0.000000)">
                        <g id="Page-1">
                            <mask id="mask-2" fill="white">
                                <use xlink:href="#path-1"></use>
                            </mask>
                            <g id="Clip-2"></g>
                            <path d="M66.099038,69.3530838 C67.5340506,69.3535459 68.6706076,68.1976302 68.6574043,66.7510799 C68.6445081,65.3421103 67.5272954,64.2263937 66.113623,64.2105297 C64.6323989,64.1937416 63.5326883,65.2792704 63.530846,66.759859 C63.5290037,68.2151884 64.6554279,69.3526218 66.099038,69.3530838 M44.6192928,74.5617123 C44.6188323,75.9810011 45.8097377,77.1644863 47.2148126,77.1410753 C48.5910245,77.1181265 49.7337226,75.9546638 49.744623,74.5652547 C49.7558304,73.1421154 48.5847299,71.9473868 47.1824185,71.9515453 C45.7572316,71.9558579 44.6197534,73.1142379 44.6192928,74.5617123 M63.533763,12.1032987 C63.5021365,13.5586281 64.5838845,14.73241 66.0043121,14.7841606 C67.4150675,14.835449 68.6141098,13.7029443 68.6549479,12.280575 C68.696093,10.8488106 67.5963824,9.66886788 66.168432,9.61203472 C64.7197555,9.55443146 63.5653895,10.645967 63.533763,12.1032987 M63.5320742,45.558163 C63.5236302,46.9973204 64.6661748,48.1738746 66.0835318,48.1855801 C67.4913702,48.1971316 68.6589396,47.0154946 68.6569437,45.5809579 C68.6549479,44.1501175 67.4882997,42.9851147 66.0663369,42.9940478 C64.6901249,43.0026729 63.5402111,44.1662896 63.5320742,45.558163 M68.6569437,33.2486236 C68.6498815,31.8194775 67.4750964,30.6563229 66.0551294,30.672803 C64.6773822,30.688821 63.5357588,31.8539779 63.5322277,33.2481616 C63.5285431,34.6860868 64.679071,35.8609468 66.0947393,35.8644893 C67.5045735,35.8681858 68.664006,34.6843926 68.6569437,33.2486236 M49.7421665,4.3194657 C49.753374,2.90202506 48.5770536,1.71191708 47.1690617,1.71622962 C45.7910074,1.72054216 44.6397119,2.8713752 44.6171435,4.26694508 C44.593961,5.70132786 45.7389619,6.892668 47.1529414,6.90529759 C48.5684561,6.91792718 49.730652,5.7572369 49.7421665,4.3194657 M29.298265,55.5412391 L29.298265,23.2191876 C22.025252,23.4907238 14.3977463,29.5158092 14.1336806,38.9350203 C13.887424,47.7218277 20.6848118,55.1324716 29.298265,55.5412391 M29.4382812,21.3803499 L29.4382812,14.5799308 C27.8193438,14.8168127 26.2565971,15.0130334 24.7085889,15.2910384 C24.2203745,15.3786755 23.9776491,15.2751744 23.7148116,14.8734918 C22.8888388,13.6108407 22.0195715,12.3768372 21.1389433,11.0907751 C19.6962543,11.6718903 18.2873413,12.2392978 16.8537104,12.8167166 C17.1368133,14.3455133 17.3624974,15.8140884 17.6979529,17.2569422 C17.837662,17.8579259 17.6574218,18.1111339 17.1848671,18.413936 C13.9704819,20.4737916 11.2923649,23.0830345 9.30097209,26.363956 C9.05440846,26.7701051 8.80093614,26.848501 8.36645602,26.7585537 C6.87049338,26.4483586 5.36746852,26.1728179 3.82698318,25.8763305 C3.24373584,27.3418252 2.6801399,28.7575716 2.11147758,30.1864097 C3.41967726,31.0877313 4.6547983,31.9547065 5.90941722,32.7924181 C6.24656151,33.0175945 6.39793868,33.2175117 6.28601783,33.6555429 C5.32171761,37.433485 5.35748929,41.2195902 6.27818797,44.9995346 C6.38488892,45.4375658 6.29707174,45.6847669 5.90895664,45.9405932 C4.63192285,46.7826173 3.38605495,47.6720794 2.10840705,48.5569209 C2.69871661,50.0264201 3.26599719,51.4387781 3.83281719,52.849904 C5.36439799,52.5623497 6.80324875,52.3330148 8.21983817,52.0061856 C8.79571623,51.8734209 9.07421338,51.9970985 9.38602579,52.4910387 C11.4528001,55.7641052 13.9962744,58.5726492 17.4014931,60.4986619 C17.7699568,60.7070502 17.8086455,60.9246796 17.7318822,61.3023352 C17.4217586,62.8282055 17.1451038,64.3608527 16.8504863,65.9206072 C18.3043827,66.5029546 19.6980967,67.061275 21.1347981,67.6369996 C21.9220822,66.4935595 22.7522002,65.4152696 23.4353933,64.2504208 C23.8927489,63.4706205 24.388179,63.3424763 25.2256663,63.5229871 C26.5576626,63.8099252 27.9235883,63.9393015 29.3059413,64.1396808 L29.3059413,57.4788033 C18.8647546,56.8105131 12.1927981,48.2300917 12.2772377,39.3279238 C12.3670507,29.8618908 19.873424,21.9040159 29.4382812,21.3803499 M62.975387,63.5365408 C60.4492612,61.0893264 57.9475462,58.6653689 55.4453706,56.2420275 C54.6170949,55.4398944 53.7994125,54.6260558 52.9499501,53.8470256 C52.7448387,53.6589679 52.4327192,53.4804594 52.1694212,53.4798433 C45.2616479,53.4622851 38.3537211,53.4685999 31.4459478,53.4730665 C31.3730227,53.4730665 31.3002511,53.5021762 31.1657618,53.5308238 L31.1657618,58.6624425 C33.9785216,58.6624425 36.7839122,58.6624425 39.5894562,58.6624425 C42.3739671,58.6624425 45.1586316,58.6624425 48.009773,58.6624425 L48.009773,70.1353484 C50.3281774,70.8099534 51.8611399,72.6053577 51.3784524,75.2990032 C51.0179721,77.3111128 49.1159318,78.7635158 47.0468545,78.7190042 C45.1016732,78.6771109 43.3270599,77.1729574 42.9725671,75.265581 C42.546531,72.972386 43.6654324,71.2487547 46.3042466,70.1666144 L46.3042466,60.4378243 L31.1160192,60.4378243 L31.1160192,66.0729324 C29.1278505,65.8497583 27.2563619,65.6741762 25.3979231,65.4074146 C24.9224514,65.339338 24.7108918,65.4530043 24.4753821,65.8141798 C23.6914756,67.0161473 22.8932911,68.2093357 22.0679324,69.3828096 C21.9426547,69.560856 21.5838632,69.766934 21.4357101,69.7065584 C19.2154092,68.8033886 17.0124568,67.8575554 14.7589942,66.9021729 C15.0899975,65.2778842 15.3912165,63.6957969 15.7449417,62.125723 C15.8533314,61.6447204 15.7318919,61.387816 15.3371752,61.1125833 C12.6655063,59.2501806 10.3592306,57.0121245 8.55160903,54.2850568 C8.30704125,53.9160263 8.04466438,53.8682803 7.65025469,53.9539151 C6.07891052,54.2950681 4.50234645,54.6112699 2.85469958,54.9518069 C2.46581685,54.0415521 2.08384281,53.1562486 1.70877746,52.2680186 C1.1907789,51.0411 0.699493965,49.8021678 0.152171837,48.5888029 C-0.0662964342,48.1042579 -0.0296035903,47.835186 0.449706278,47.5329999 C1.63984404,46.7829253 2.78162095,45.9559951 3.9577878,45.1828177 C4.29401093,44.9617998 4.42665786,44.7711238 4.34145063,44.3210791 C3.72903325,41.0865174 3.72427392,37.8391722 4.33024319,34.6041485 C4.42696491,34.0875674 4.26821847,33.8754826 3.88025689,33.6330561 C2.70854231,32.9008478 1.55939613,32.132599 0.397200201,31.3849887 C0.100586919,31.1941587 -0.119877198,31.0433737 0.0718774549,30.6004139 C1.00593295,28.4407537 1.90344912,26.2650755 2.83811872,24.0376468 C4.46089428,24.3629358 6.0614085,24.6600392 7.64871943,25.0172102 C8.10162273,25.1191711 8.33160549,25.0215228 8.58906951,24.6478717 C10.4389108,21.9620812 12.6671951,19.6454752 15.3824655,17.8283542 C15.7768752,17.5643649 15.8349083,17.3003757 15.7417176,16.8712776 C15.3996605,15.2971992 15.0918398,13.7155739 14.7588407,12.0764993 C17.0892201,11.0906211 19.3885872,10.1178345 21.7527424,9.11763241 C22.6507191,10.4491302 23.5591357,11.7468978 24.4085981,13.0825541 C24.7055184,13.5490789 25.0082728,13.6254725 25.5301095,13.5549316 C27.3427974,13.3097327 29.1648504,13.1332265 31.0727247,12.9206797 L31.0727247,18.4191727 L46.2720061,18.4191727 L46.2720061,8.70116392 C43.5707065,7.75548474 42.4568715,5.47199295 43.0299861,3.21853495 C43.5310967,1.24770257 45.4382034,-0.11167275 47.4550816,0.00723023518 C49.3769269,0.120434502 51.1366481,1.72485471 51.4166805,3.60758799 C51.6825885,5.39575335 50.9591714,7.77442913 48.0507646,8.67975523 L48.0507646,20.3156137 L31.1571643,20.3156137 L31.1571643,25.5122286 C31.4327445,25.5122286 31.681611,25.5122286 31.9304775,25.5122286 C38.6337535,25.5133067 45.3370294,25.5186974 52.0401518,25.5025254 C52.3662422,25.5016013 52.7822992,25.4053391 53.0039915,25.1931004 C56.3729779,21.9699362 59.7166325,18.7198186 62.9279472,15.6100126 C62.5375292,14.5480488 62.0107797,13.6109947 61.8672324,12.6183396 C61.5914987,10.7108092 62.6939728,8.98609983 64.4279016,8.23155874 C66.11654,7.49673213 68.0526633,7.94893312 69.3144979,9.37268856 C70.5282788,10.7423832 70.7310873,12.7267693 69.8192932,14.3136313 C68.8686568,15.9682618 67.096807,16.7409772 65.17619,16.4089113 C64.898614,16.3608573 64.4928433,16.5358233 64.2746821,16.7432875 C60.8017581,20.0443855 57.342191,23.3599614 53.9025823,26.6958678 C53.4794632,27.1061755 53.059261,27.2555743 52.4839971,27.2541881 C45.7297503,27.2375541 38.97535,27.2435608 32.2209498,27.2435608 L31.166683,27.2435608 L31.166683,32.3557731 C31.470205,32.3694808 31.7447104,32.3924297 32.0192159,32.3925837 C41.6646745,32.394432 51.3101331,32.3895033 60.9555917,32.4053673 C61.5383785,32.4062915 61.8270084,32.2715245 62.0697339,31.6762395 C62.9302501,29.5644793 65.1809493,28.5099084 67.2911716,29.1315307 C69.3855807,29.7485325 70.6814983,31.8510515 70.3133416,34.0344307 C69.9623799,36.1146168 67.987568,37.7207312 65.8469474,37.5665578 C63.8311439,37.4211635 62.4993011,36.306525 61.8197927,34.402229 L31.1563967,34.402229 L31.1563967,44.8381222 C31.4236864,44.8381222 31.6940467,44.8381222 31.9642534,44.8381222 C41.6353509,44.8382763 51.3064485,44.8324235 60.9773925,44.8526001 C61.5801377,44.8538322 61.8356059,44.677788 62.0718832,44.1071461 C62.9006195,42.106434 65.0139124,41.0326106 67.0083757,41.50391 C69.0118971,41.9773657 70.4731628,43.8326835 70.3971671,45.8062883 C70.3148769,47.9423835 68.7472174,49.6710973 66.5969246,49.9971564 C64.6908925,50.2862509 62.6592758,49.0685734 61.9825308,47.1822977 C61.8202532,46.7299427 61.630955,46.5517422 61.127695,46.5525123 C51.3287098,46.5694544 41.5297247,46.5652959 31.7307395,46.5676062 C31.5563334,46.5676062 31.3820807,46.5951757 31.1562432,46.6141201 L31.1562432,51.7517456 L32.0859999,51.7517456 C38.8915246,51.7517456 45.6970492,51.7566742 52.5025738,51.7414263 C53.001228,51.7403481 53.3541855,51.8874367 53.7119024,52.2332102 C57.1754612,55.5812842 60.6586714,58.9087195 64.1260684,62.252789 C64.4441754,62.5595957 64.7062452,62.6915903 65.1909285,62.5834687 C67.579648,62.0500994 69.881625,63.7748088 70.2485534,66.3144349 C70.5801708,68.6108643 68.7174332,70.8442998 66.2705272,71.084262 C64.0058571,71.306358 61.8111952,69.3794212 61.6940544,67.0658956 C61.6263492,65.728083 61.9212737,64.8942219 62.975387,63.5365408" id="Fill-1" fill="#046FD7" mask="url(#mask-2)"></path>
                        </g>
                    </g>
                </g>
            </g>
        </g>
    </g>
</svg>

<?xml version="1.0" encoding="UTF-8"?>
<svg width="71px" height="79px" version="1.1" viewBox="0 0 71 79" xmlns="http://www.w3.org/2000/svg"
     xmlns:xlink="http://www.w3.org/1999/xlink">
    <title>val-2</title>
    <desc>Created with Sketch.</desc>
    <defs>
        <polygon id="a" points="0 0 70.4 0 70.4 78.72 0 78.72"/>
    </defs>
    <g transform="translate(-829 -1177)" fill="none" fill-rule="evenodd">
        <g transform="translate(-88 -410)">
            <g transform="translate(663 1587)">
                <g transform="translate(254)">
                    <mask id="b" fill="white">
                        <use xlink:href="#a"/>
                    </mask>
                    <path d="m66.099 69.353c1.435 4.621e-4 2.5716-1.1555 2.5584-2.602-0.012896-1.409-1.1301-2.5247-2.5438-2.5406-1.4812-0.016788-2.5809 1.0687-2.5828 2.5493-0.0018423 1.4553 1.1246 2.5928 2.5682 2.5932m-21.48 5.2086c-4.605e-4 1.4193 1.1904 2.6028 2.5955 2.5794 1.3762-0.022949 2.5189-1.1864 2.5298-2.5758 0.011207-1.4231-1.1599-2.6179-2.5622-2.6137-1.4252 0.0043126-2.5627 1.1627-2.5631 2.6102m18.914-62.458c-0.031626 1.4553 1.0501 2.6291 2.4705 2.6809 1.4108 0.051288 2.6098-1.0812 2.6506-2.5036 0.041145-1.4318-1.0586-2.6117-2.4865-2.6685-1.4487-0.057603-2.603 1.0339-2.6347 2.4913m-0.0016888 33.455c-0.008444 1.4392 1.1341 2.6157 2.5515 2.6274 1.4078 0.011552 2.5754-1.1701 2.5734-2.6046-0.0019958-1.4308-1.1686-2.5958-2.5906-2.5869-1.3762 0.0086251-2.5261 1.1722-2.5343 2.5641m5.1249-12.31c-0.0070622-1.4291-1.1818-2.5923-2.6018-2.5758-1.3777 0.016018-2.5194 1.1812-2.5229 2.5754-0.0036846 1.4379 1.1468 2.6128 2.5625 2.6163 1.4098 0.0036965 2.5693-1.1801 2.5622-2.6159m-18.915-28.929c0.011208-1.4174-1.1651-2.6075-2.5731-2.6032-1.3781 0.0043125-2.5293 1.1551-2.5519 2.5507-0.023182 1.4344 1.1218 2.6257 2.5358 2.6384 1.4155 0.01263 2.5777-1.1481 2.5892-2.5858m-20.444 51.222v-32.322c-7.273 0.27154-14.901 6.2966-15.165 15.716-0.24626 8.7868 6.5511 16.197 15.165 16.606m0.14002-34.161v-6.8004c-1.6189 0.23688-3.1817 0.4331-4.7297 0.71111-0.48821 0.087637-0.73094-0.015864-0.99378-0.41755-0.82597-1.2627-1.6952-2.4967-2.5759-3.7827-1.4427 0.58112-2.8516 1.1485-4.2852 1.7259 0.2831 1.5288 0.50879 2.9974 0.84424 4.4402 0.13971 0.60098-0.040531 0.85419-0.51309 1.157-3.2144 2.0599-5.8925 4.6691-7.8839 7.95-0.24656 0.40615-0.50004 0.48454-0.93452 0.3946-1.496-0.3102-2.999-0.58574-4.5395-0.88222-0.58325 1.4655-1.1468 2.8812-1.7155 4.3101 1.3082 0.90132 2.5433 1.7683 3.7979 2.606 0.33714 0.22518 0.48852 0.42509 0.3766 0.86312-0.9643 3.7779-0.92853 7.564-0.0078299 11.344 0.1067 0.43803 0.018884 0.68523-0.36923 0.94106-1.277 0.84202-2.5229 1.7315-3.8005 2.6163 0.59031 1.4695 1.1576 2.8819 1.7244 4.293 1.5316-0.28755 2.9704-0.51689 4.387-0.84372 0.57588-0.13276 0.85438-0.0090871 1.1662 0.48485 2.0668 3.2731 4.6102 6.0816 8.0155 8.0076 0.36846 0.20839 0.40715 0.42602 0.33039 0.80367-0.31012 1.5259-0.58678 3.0585-0.8814 4.6183 1.4539 0.58235 2.8476 1.1407 4.2843 1.7164 0.78728-1.1434 1.6174-2.2217 2.3006-3.3866 0.45736-0.7798 0.95279-0.90794 1.7903-0.72743 1.332 0.28694 2.6979 0.41631 4.0803 0.61669v-6.6609c-10.441-0.66829-17.113-9.2487-17.029-18.151 0.089813-9.466 7.5962-17.424 17.161-17.948m33.537 42.156c-2.5261-2.4472-5.0278-4.8712-7.53-7.2945-0.82828-0.80213-1.646-1.616-2.4954-2.395-0.20511-0.18806-0.51723-0.36657-0.78053-0.36718-6.9078-0.017558-13.816-0.011243-20.723-0.0067768-0.072925 0-0.1457 0.02911-0.28019 0.057757v5.1316h8.4237 8.4203v11.473c2.3184 0.6746 3.8514 2.47 3.3687 5.1637-0.36048 2.0121-2.2625 3.4645-4.3316 3.42-1.9452-0.041893-3.7198-1.546-4.0743-3.4534-0.42604-2.2932 0.69287-4.0168 3.3317-5.099v-9.7288h-15.188v5.6351c-1.9882-0.22317-3.8597-0.39876-5.7181-0.66552-0.47547-0.068077-0.68703 0.04559-0.92254 0.40677-0.78391 1.202-1.5821 2.3952-2.4074 3.5686-0.12528 0.17805-0.48407 0.38412-0.63222 0.32375-2.2203-0.90317-4.4233-1.849-6.6767-2.8044 0.331-1.6243 0.63222-3.2064 0.98595-4.7764 0.10839-0.481-0.01305-0.73791-0.40777-1.0131-2.6717-1.8624-4.9779-4.1005-6.7856-6.8275-0.24457-0.36903-0.50694-0.41678-0.90135-0.33114-1.5713 0.34115-3.1479 0.65735-4.7956 0.99789-0.38888-0.91025-0.77086-1.7956-1.1459-2.6838-0.518-1.2269-1.0093-2.4659-1.5566-3.6792-0.21847-0.48454-0.18178-0.75362 0.29753-1.0558 1.1901-0.75007 2.3319-1.577 3.5081-2.3502 0.33622-0.22102 0.46887-0.41169 0.38366-0.86174-0.61242-3.2346-0.61718-6.4819-0.011207-9.7169 0.096722-0.51658-0.062025-0.72867-0.44999-0.97109-1.1717-0.73221-2.3209-1.5005-3.4831-2.2481-0.29661-0.19083-0.51708-0.34162-0.32532-0.78457 0.93406-2.1597 1.8316-4.3353 2.7662-6.5628 1.6228 0.32529 3.2233 0.62239 4.8106 0.97956 0.4529 0.10196 0.68289 0.0043126 0.94035-0.36934 1.8498-2.6858 4.0781-5.0024 6.7934-6.8195 0.39441-0.26399 0.45244-0.52798 0.35925-0.95708-0.34206-1.5741-0.64988-3.1557-0.98288-4.7948 2.3304-0.98588 4.6297-1.9587 6.9939-2.9589 0.89798 1.3315 1.8064 2.6293 2.6559 3.9649 0.29692 0.46652 0.59967 0.54292 1.1215 0.47238 1.8127-0.2452 3.6347-0.42171 5.5426-0.63425v5.4985h15.199v-9.718c-2.7013-0.94568-3.8151-3.2292-3.242-5.4826 0.50111-1.9708 2.4082-3.3302 4.4251-3.2113 1.9218 0.1132 3.6816 1.7176 3.9616 3.6004 0.26591 1.7882-0.45751 4.1668-3.3659 5.0722v11.636h-16.894v5.1966h0.77331c6.7033 0.0010781 13.407 0.0064688 20.11-0.0097032 0.32609-9.241e-4 0.74215-0.097186 0.96384-0.30942 3.369-3.2232 6.7126-6.4733 9.924-9.5831-0.39042-1.062-0.91717-1.999-1.0607-2.9917-0.27573-1.9075 0.82674-3.6322 2.5607-4.3868 1.6886-0.73483 3.6248-0.28263 4.8866 1.1411 1.2138 1.3697 1.4166 3.3541 0.5048 4.9409-0.95064 1.6546-2.7225 2.4273-4.6431 2.0953-0.27758-0.048054-0.68335 0.12691-0.90151 0.33438-3.4729 3.3011-6.9325 6.6167-10.372 9.9526-0.42312 0.41031-0.84332 0.55971-1.4186 0.55832-6.7542-0.016634-13.509-0.010627-20.263-0.010627h-1.0543v5.1122c0.30352 0.013708 0.57803 0.036657 0.85253 0.036811 9.6455 0.0018483 19.291-0.0030804 28.936 0.012784 0.58279 9.242e-4 0.87142-0.13384 1.1141-0.72913 0.86052-2.1118 3.1112-3.1663 5.2214-2.5447 2.0944 0.617 3.3903 2.7195 3.0222 4.9029-0.35096 2.0802-2.3258 3.6863-4.4664 3.5321-2.0158-0.14539-3.3476-1.26-4.0272-3.1643h-30.663v10.436h0.80786c9.6711 1.541e-4 19.342-0.0056987 29.013 0.014478 0.60275 0.0012321 0.85821-0.17481 1.0945-0.74545 0.82874-2.0007 2.942-3.0745 4.9365-2.6032 2.0035 0.47346 3.4648 2.3288 3.3888 4.3024-0.08229 2.1361-1.6499 3.8648-3.8002 4.1909-1.906 0.28909-3.9376-0.92858-4.6144-2.8149-0.16228-0.45236-0.35158-0.63056-0.85484-0.62979-9.799 0.016942-19.598 0.012784-29.397 0.015094-0.17441 0-0.34866 0.02757-0.5745 0.046514v5.1376h0.92976c6.8055 0 13.611 0.0049286 20.417-0.010319 0.49865-0.0010782 0.85161 0.14601 1.2093 0.49178 3.4636 3.3481 6.9468 6.6755 10.414 10.02 0.31811 0.30681 0.58018 0.4388 1.0649 0.33068 2.3887-0.53337 4.6907 1.1913 5.0576 3.731 0.33162 2.2964-1.5311 4.5299-3.978 4.7698-2.2647 0.2221-4.4593-1.7048-4.5765-4.0184-0.067705-1.3378 0.22722-2.1717 1.2813-3.5294"
                          fill="#046FD7" mask="url(#b)"/>
                </g>
            </g>
        </g>
    </g>
</svg>
